assets/Anchor/Flat/anchor_flat.svg

<svg width="32" height="32" viewBox="0 0 32 32" fill="none" xmlns="http://www.w3.org/2000/svg">
<path fill-rule="evenodd" clip-rule="evenodd" d="M13.0009 5C13.0009 5.8908 13.3868 6.68944 14.0009 7.23832V10H10.5009C9.67089 10 9.00089 10.67 9.00089 11.5C9.00089 12.33 9.67089 13 10.5009 13H14.0009V26.7763C11.3397 26.1708 9.12469 24.3837 7.94087 22L7.98088 21.9999C8.85088 21.9999 9.32088 20.9799 8.75088 20.3199L5.36088 16.3599C4.79088 15.6899 3.70088 16.0099 3.58088 16.8799L3.01088 20.8399C2.92088 21.4499 3.40088 21.9999 4.02088 21.9999L4.69087 22C6.33087 26.66 10.7709 30 16.0009 30C21.2309 30 25.6709 26.66 27.3109 22L27.9809 21.9999C28.6009 21.9999 29.0809 21.4499 28.9909 20.8399L28.4209 16.8799C28.3009 16.0099 27.2109 15.6899 26.6409 16.3599L23.2509 20.3199C22.6809 20.9799 23.1509 21.9999 24.0209 21.9999H24.0609C22.8771 24.3836 20.6621 26.1708 18.0009 26.7763V13H21.5009C22.3309 13 23.0009 12.33 23.0009 11.5C23.0009 10.67 22.3309 10 21.5009 10H18.0009V7.23832C18.615 6.68944 19.0009 5.8908 19.0009 5C19.0009 3.34 17.6609 2 16.0009 2C14.3409 2 13.0009 3.34 13.0009 5ZM15.0009 5C15.0009 4.45 15.4509 4 16.0009 4C16.5509 4 17.0009 4.45 17.0009 5C17.0009 5.55 16.5509 6 16.0009 6C15.4509 6 15.0009 5.55 15.0009 5Z" fill="#00A6ED"/>
</svg>

<svg xmlns="http://www.w3.org/2000/svg" width="32" height="32" fill="none"><path fill="#00A6ED" fill-rule="evenodd" d="M13 5c0 .89.387 1.69 1 2.238V10h-3.5c-.83 0-1.5.67-1.5 1.5s.67 1.5 1.5 1.5H14v13.776A9.02 9.02 0 0 1 7.94 22h.04c.87 0 1.34-1.02.77-1.68l-3.39-3.96c-.57-.67-1.66-.35-1.78.52l-.57 3.96c-.09.61.39 1.16 1.01 1.16h.67c1.64 4.66 6.08 8 11.31 8s9.67-3.34 11.31-8h.67c.62 0 1.1-.55 1.01-1.16l-.57-3.96c-.12-.87-1.21-1.19-1.78-.52l-3.39 3.96c-.57.66-.1 1.68.77 1.68h.04A9.02 9.02 0 0 1 18 26.776V13h3.5c.83 0 1.5-.67 1.5-1.5s-.67-1.5-1.5-1.5H18V7.238c.615-.549 1-1.347 1-2.238 0-1.66-1.34-3-3-3s-3 1.34-3 3Zm2 0c0-.55.45-1 1-1s1 .45 1 1-.45 1-1 1-1-.45-1-1Z" clip-rule="evenodd"/></svg>
